images/icons/icon-search.svg

<svg width="16" height="16" viewBox="0 0 16 16" fill="none" xmlns="http://www.w3.org/2000/svg">
<path fill-rule="evenodd" clip-rule="evenodd" d="M2.66341 7.33008C2.66341 4.75275 4.75275 2.66341 7.33008 2.66341C9.90741 2.66341 11.9967 4.75275 11.9967 7.33008C11.9967 8.58735 11.4995 9.7285 10.691 10.5676C10.6682 10.5852 10.6462 10.6044 10.6253 10.6253C10.6044 10.6463 10.5852 10.6682 10.5676 10.6911C9.72847 11.4996 8.58734 11.9967 7.33008 11.9967C4.75275 11.9967 2.66341 9.90741 2.66341 7.33008ZM11.0752 12.018C10.0487 12.8391 8.74675 13.3301 7.33008 13.3301C4.01637 13.3301 1.33008 10.6438 1.33008 7.33008C1.33008 4.01637 4.01637 1.33008 7.33008 1.33008C10.6438 1.33008 13.3301 4.01637 13.3301 7.33008C13.3301 8.74676 12.8391 10.0488 12.018 11.0752L14.4681 13.5253C14.7285 13.7857 14.7285 14.2078 14.4681 14.4682C14.2078 14.7285 13.7857 14.7285 13.5253 14.4682L11.0752 12.018Z" fill="#2D3440"/>
</svg>

<svg width="16" height="16" fill="none" xmlns="http://www.w3.org/2000/svg"><path fill-rule="evenodd" clip-rule="evenodd" d="M2.6634 7.33c0-2.5773 2.0893-4.6666 4.6667-4.6666 2.5773 0 4.6666 2.0893 4.6666 4.6667 0 1.2573-.4972 2.3984-1.3057 3.2375a.6833.6833 0 0 0-.1234.1235c-.8391.8085-1.9803 1.3056-3.2375 1.3056-2.5774 0-4.6667-2.0893-4.6667-4.6666Zm8.4118 4.688a5.9747 5.9747 0 0 1-3.7451 1.3121c-3.3137 0-6-2.6863-6-6s2.6863-6 6-6 6 2.6863 6 6a5.9745 5.9745 0 0 1-1.3121 3.7451l2.4501 2.4501a.6667.6667 0 1 1-.9428.9429l-2.4501-2.4502Z" fill="#2D3440"/></svg>
